packages/calcite-ui-icons/icons/layer-connection-16.svg

<?xml version="1.0" encoding="UTF-8"?><svg id="icons" xmlns="http://www.w3.org/2000/svg" viewBox="0 0 16 16"><defs><style>.cls-1{fill:none;}.cls-1,.cls-2{stroke-width:0px;}</style></defs><rect class="cls-1" y="0" width="16" height="16"/><path class="cls-2" d="M15.30786,10.2002l.69214,4.08887s-1.42236-1.08905-3.79272-1.08905c-3.66553,0-4.74902,1.59998-8.41455,1.59998C1.42236,14.79999,0,14.08905,0,14.08905L2.13281,1.48828s1.42285.51172,3.16113.51172c2.6875,0,2.72119-.98572,5.41211-.98572,1.73828,0,3.16113.67395,3.16113.67395l.83765,4.94879c-.29541-.36823-.69092-.64081-1.14307-.76141l-.58618-3.46283c-.49536-.16968-1.33667-.3985-2.26953-.3985-1.17041,0-1.72534.20087-2.36768.43335-.71509.25891-1.52563.55237-3.04443.55237-.90796,0-1.73608-.12628-2.35864-.26007l-1.81079,10.69733c.57397.16846,1.49097.36273,2.66821.36273,1.44775,0,2.44995-.27631,3.4353-.59979h2.26807c.94214,0,1.83203-.3725,2.50684-.99463.06934-.0011.1333-.00555.20435-.00555.97412,0,1.8125.16431,2.48853.37592l-.31787-1.87872c.17627-.14282.33838-.3031.46484-.49701h.46509ZM16,8v1h-2c0,.55176-.44824,1-1,1h-1.05103c-.23364,1.14008-1.24463,2-2.45288,2h-3.49609v-1h-2v-1h2v-3h-2v-1h2v-1h3.49609c1.20825,0,2.21924.85992,2.45288,2h1.05103c.55176,0,1,.44873,1,1h2ZM8,6h-1v5h1v-5ZM11,7.50391c0-.8291-.6748-1.50391-1.50391-1.50391h-.49609v5h.49609c.8291,0,1.50391-.6748,1.50391-1.50391v-1.99219ZM13,9v-1h-1v1h1Z"/></svg>

<svg xmlns="http://www.w3.org/2000/svg" viewBox="0 0 16 16"><path stroke-width="0" fill="none" d="M0 0h16v16H0z"/><path d="M15.308 10.2L16 14.29s-1.422-1.09-3.793-1.09c-3.665 0-4.749 1.6-8.414 1.6-2.37 0-3.793-.711-3.793-.711l2.133-12.6S3.556 2 5.293 2c2.688 0 2.722-.986 5.413-.986 1.738 0 3.161.674 3.161.674l.838 4.949a2.201 2.201 0 0 0-1.143-.761l-.586-3.463c-.496-.17-1.337-.399-2.27-.399-1.17 0-1.725.201-2.368.434C7.623 2.707 6.813 3 5.294 3c-.908 0-1.736-.126-2.359-.26l-1.81 10.697a9.538 9.538 0 0 0 2.668.363c1.447 0 2.45-.276 3.435-.6h2.268a3.71 3.71 0 0 0 2.507-.994c.07-.002.133-.006.204-.006.974 0 1.813.164 2.489.376l-.318-1.879a2.2 2.2 0 0 0 .465-.497h.465zM16 8v1h-2a1 1 0 0 1-1 1h-1.051a2.508 2.508 0 0 1-2.453 2H6v-1H4v-1h2V7H4V6h2V5h3.496c1.208 0 2.22.86 2.453 2H13c.552 0 1 .449 1 1h2zM8 6H7v5h1V6zm3 1.504C11 6.674 10.325 6 9.496 6H9v5h.496c.83 0 1.504-.675 1.504-1.504V7.504zM13 9V8h-1v1h1z" stroke-width="0"/></svg>
